X:580
T: Music at McGurk's
C: BB
R: reel
Q: 1/8=350
M: 4/4
L: 1/8
K: G
"Em"E2 GA BAGA|"G"Bd (3d^cd "C"eg (3gfg|"Em"eB (3BAB "G"dBGB|"Am"AGAB "D"AGFD|
"Em"E2 GA BAGA|"G"Bd (3d^cd "Am"efga|"G"bgaf gfed|"Bm7"BdAF "Em"E4 :|
"G"G2 DG BAGF|"Em"EB, (3B,A,B, "Am"A,CEF|"G"G2 BG "Bm"Bd (3d^cd|"Em"ecdB "D"cBAF|
"G"G2 DG BAGF|"Em"EB, (3B,A,B, "Am"A,CEF|"G"GB "D"AF "G"GBdg|"C"ec "D"AF "G"G4 :|

%%%%%%%%%%%%%%%%%%%%%%%%%%%%%%%%%%%%%%%%%%%

